lib/img/icons/ui/environment-settings.svg

<svg xmlns="http://www.w3.org/2000/svg" width="32" height="32" viewBox="0 0 32 32" class="svg-icon">
    <path d="M16.047 22.746c-3.693 0-6.699-3.006-6.699-6.699s3.006-6.699 6.699-6.699 6.699 3.006 6.699 6.699-3.006 6.699-6.699 6.699zm0-17c1.094 0 2.127.219 3.117.535L16.047.047 12.93 6.281c.99-.316 2.024-.535 3.117-.535zm9.109 5.598l2.205-6.611-6.611 2.205a10.298 10.298 0 0 1 4.406 4.406zM11.344 6.937L4.735 4.732l2.203 6.611a10.292 10.292 0 0 1 4.406-4.406zm20.703 9.11l-6.234-3.117c.316.99.535 2.024.535 3.117s-.219 2.127-.535 3.117l6.234-3.117zm-26.301 0c0-1.094.219-2.127.535-3.117L.047 16.047l6.234 3.117c-.316-.99-.535-2.023-.535-3.117zm15.004 9.109l6.611 2.205-2.205-6.611a10.292 10.292 0 0 1-4.406 4.406zM6.938 20.75l-2.203 6.611 6.609-2.205a10.292 10.292 0 0 1-4.406-4.406zm9.109 5.598c-1.094 0-2.127-.219-3.117-.535l3.117 6.234 3.117-6.234c-.99.317-2.023.535-3.117.535z"/>
</svg>

<?xml version="1.0" encoding="utf-8"?>
<!-- Generated by IcoMoon.io -->
<!DOCTYPE svg PUBLIC "-//W3C//DTD SVG 1.1//EN" "http://www.w3.org/Graphics/SVG/1.1/DTD/svg11.dtd">
<svg version="1.1" xmlns="http://www.w3.org/2000/svg" xmlns:xlink="http://www.w3.org/1999/xlink" width="32" height="32" viewBox="0 0 32 32">
<path fill="rgb(0, 0, 0)" d="M16.047 22.746c-3.693 0-6.699-3.006-6.699-6.699s3.006-6.699 6.699-6.699c3.693 0 6.699 3.006 6.699 6.699s-3.006 6.699-6.699 6.699zM16.047 5.746c1.094 0 2.127 0.219 3.117 0.535l-3.117-6.234-3.117 6.234c0.99-0.316 2.024-0.535 3.117-0.535zM25.156 11.344l2.205-6.611-6.611 2.205c1.891 0.981 3.426 2.516 4.406 4.406zM11.344 6.937l-6.609-2.205 2.203 6.611c0.98-1.891 2.516-3.426 4.406-4.406zM32.047 16.047l-6.234-3.117c0.316 0.99 0.535 2.024 0.535 3.117s-0.219 2.127-0.535 3.117l6.234-3.117zM5.746 16.047c0-1.094 0.219-2.127 0.535-3.117l-6.234 3.117 6.234 3.117c-0.316-0.99-0.535-2.023-0.535-3.117zM20.75 25.156l6.611 2.205-2.205-6.611c-0.98 1.891-2.516 3.426-4.406 4.406zM6.938 20.75l-2.203 6.611 6.609-2.205c-1.891-0.98-3.426-2.516-4.406-4.406zM16.047 26.348c-1.094 0-2.127-0.219-3.117-0.535l3.117 6.234 3.117-6.234c-0.99 0.317-2.023 0.535-3.117 0.535z"></path>
</svg>
